X:1
T:Een kint gheboren
T:André Vierendeels
T:Source : Traditional from Flanders Editor : André Vierendeels (05/09/17).
T:Notes : Melody by Hoffman von Fallersleben Text Middle Flemish
T:Een kint gheboren
T:©
T:©
C:André Vierendeels
Z:©
%%score [ 1 2 3 ]
L:1/8
Q:1/4=120
M:3/4
K:C
V:1 treble nm="Soprano" snm="S"
V:2 treble-8 nm="Tenor" snm="T"
V:3 bass nm="Bass" snm="B"
V:1
 z2 z2 D2 | F4 G2 | A2- A2 c2 | A4 G2 | F4 A2 | c4 A2 | F2 F2 G2 | F2 E4 | D4 D2 | D4 D2 | C4 D2 | %11
w: 1. Een|kint ghe-|bo- ren in|Beth- le-|hem, ver-|bli- det|al- le Je-|ru- sa-|le. A-|mor, a-|mor, a-|
w: 2. Sie|lei- de|in _ een|crib- be-|kijn des|e- wi-|gen Va- ters|son- ne-|kijn. *|||
 F4 E2 | D4 D2 | G4 A2 | F4 D2 | E4 E2 | D6 |] %17
w: mor, a-|mor, quam|dul- cis|est a-|mor, a-|mor.|
w: ||||||
V:2
 A6 | d4 c2 | c2 c2 e2 | f4 d2 | A4 A2 | G4 c2 | A2 A2 B2 | A2 d2 c2 | A4 F2 | A4 G2 | E4 G2 | %11
w: 1. Een|kint ghe-|bo- ren in|Beth- le-|hem, ver-|bli- det|al- le Je-|ru- * sa-|lem. *|||
w: 3. Die|En- ghe-|len son- ghen|doe- ter-|tijt, die|her- der-|kens wa- ren|me- de ver-|blijt. *|||
 A4 G2 | F4 G2 | c4 F2 | A4 A2 | G4 A2 | A6 |] %17
w: ||||||
w: ||||||
V:3
 D,6 | D,2- D,2 E,2 | F,2 F,2 C,2 | D,4 G,2 | D,2- D,2 F,2 | E,4 F,2 | D,2 D,2 G,2 | D,2 A,4 | %8
w: 1. Een|kint _ ghe-|bo- ren in|Beth- le-|hem, _ ver-|bli- det|al- le Je-|ru- sa-|
w: 4. Drie|co- nin- gen|qua- men uut|Oo- sten-|lan- de ende|brach- ten|mit hem haer|of- fe-|
 D,4 D,2 | D,4 G,2 | C,4 G,2 | F,4 C,2 | D,4 G,2 | E,4 D,2 | D,4 F,2 | C,2 E,2 C,2 | D,6 |] %17
w: lem. *|||||||||
w: rand'. *|||||||||

